X:1
T:Mack The Knife
T:Mack the Knife
C:Kurt Weill
Z:All Rights Reserved
L:1/4
M:4/4
K:Bb
V:1 treble nm="Voice" snm="Vo."
%%MIDI program 52
V:1
 z z D F |:"Bb6" G3/2 G2 z/ | z z D F |"Cm" G3/2 G2 z/ | z z C E |"F9" G3/2 G2 z/ | z z C E | %7
"Bb6" G4- | G2 F A |"Gm7" c3/2 B/- B z | B2 A G |"Cm7" B3/2 C/- C2- | C2 D E | B3/2 C/- C2- | %14
 C2"F7" B A |"Bb6" G4 :|[K:C] z z"^C" E G |"C6" A3/2 A2 z/ | z z E G |"Dm" A3/2 A2 z/ | z z D F | %21
"G9" A3/2 A2 z/ | z z D F |"C6" A4- | A2 G B |"Am7" d3/2 c/- c z | c2 B A |"Dm7" c3/2 D/- D2- | %28
 D2 E F | c3/2 D/- D2- | D2"G7" c B |"C6" A4 ||[K:Db] z z"^Db" F A |"Db6" B3/2 B2 z/ | z z F A | %35
"Ebm" B3/2 B2 z/ | z z E G |"Ab9" B3/2 B2 z/ | z z E G |"Db6" B4- | B2 A c |"Bbm7" e3/2 d/- d z | %42
 d2 c B |"Ebm7" d3/2 E/- E2- | E2 F G | d3/2 E/- E2- | E2"Ab7" d c |"Db6" B4 || %48
[K:Eb] z z"^Eb" G B |"Eb6" c3/2 c2 z/ | z z G B |"Fm" c3/2 c2 z/ | z z F A |"Bb9" c3/2 c2 z/ | %54
 z z F A |"Eb6" c4- | c2 B d |"Cm7" f3/2 e/- e z | e2 d c |"Fm7" e3/2 F/- F2- | F2 G A | %61
 e3/2 F/- F2- | F2"Bb7" e d |"Eb6" c4 |] %64

